X:1
L:1/8
M:6/8
K:Ador
 a2 a bag | eaf ged | c2 A BAG | EAF GED | a2 a bag | eaf ged | c2 A BAG | EFG A3 :| e2 e dBA | 
 e2 e dBA | GAB dBA | GAB dBd | e2 e dBA | e2 e dBA | GAB dBA | EFG A3 | e2 e dBA | e2 e dBA | 
 GAB dBA | GAB dBd | e2 e dee | cee Bee | EFG BAG | EDB, A,3 |]
